azure-patterns/svg-advisor-blue.svg

<svg xmlns="http://www.w3.org/2000/svg" viewBox="0 0 48 48">
                                
                            
  <path fill-rule="evenodd" clip-rule="evenodd" d="M42.432 18.816C45.408 18.816 48 21.216 48 24.384C48 27.36 45.696 29.76 42.912 30.144H39.0774C39.9909 28.528 40.5122 26.6609 40.5122 24.6721C40.5122 18.5219 35.5265 13.5361 29.3762 13.5361C23.226 13.5361 18.2402 18.5219 18.2402 24.6721C18.2402 26.6609 18.7616 28.528 19.6751 30.144H10.08C4.512 30.144 0 25.632 0 19.872C0 14.112 4.512 9.6 10.176 9.696C11.328 9.696 12.384 9.984 13.44 10.272C15.36 4.224 20.928 0 27.36 0C35.616 0 42.24 6.624 42.24 14.88C42.24 16.224 41.952 17.568 41.664 18.816H42.432Z" fill="#0078D4"></path>
  <path d="M15.36 30.048C14.016 28.704 13.056 27.072 12.672 25.056C11.424 19.488 14.784 14.112 20.352 12.864C21.6 12.576 22.656 12.576 23.616 12.672C24.096 7.68 27.264 2.976 31.872 0.768C30.528 0.288 28.992 0 27.36 0C20.928 0 15.36 4.224 13.44 10.272C12.384 9.984 11.328 9.696 10.176 9.696C4.512 9.6 0 14.112 0 19.872C0 25.632 4.512 30.144 10.08 30.144H15.36V30.048Z" fill="#50E6FF"></path>
  <path fill-rule="evenodd" clip-rule="evenodd" d="M35.1748 34.1812C33.4859 35.2133 31.5005 35.8081 29.3762 35.8081C27.1575 35.8081 25.0904 35.1593 23.3542 34.041L22.6562 48.0002L29.1842 41.3762L35.7123 48.0002L35.1748 34.1812Z" fill="#50E6FF"></path>
  <path d="M29.3757 33.1201C34.0414 33.1201 37.8237 29.3378 37.8237 24.6721C37.8237 20.0064 34.0414 16.2241 29.3757 16.2241C24.71 16.2241 20.9277 20.0064 20.9277 24.6721C20.9277 29.3378 24.71 33.1201 29.3757 33.1201Z" fill="#50E6FF"></path>
</svg>

<svg xmlns="http://www.w3.org/2000/svg" viewBox="0 0 48 48"><path fill-rule="evenodd" clip-rule="evenodd" d="M42.432 18.816c2.976 0 5.568 2.4 5.568 5.568 0 2.976-2.304 5.376-5.088 5.76h-3.835a11.085 11.085 0 0 0 1.435-5.472c0-6.15-4.986-11.136-11.136-11.136-6.15 0-11.136 4.986-11.136 11.136 0 1.989.522 3.856 1.435 5.472H10.08C4.512 30.144 0 25.632 0 19.872 0 14.112 4.512 9.6 10.176 9.696c1.152 0 2.208.288 3.264.576C15.36 4.224 20.928 0 27.36 0c8.256 0 14.88 6.624 14.88 14.88 0 1.344-.288 2.688-.576 3.936h.768z" fill="#0078D4"/><path d="M15.36 30.048c-1.344-1.344-2.304-2.976-2.688-4.992-1.248-5.568 2.112-10.944 7.68-12.192a9.745 9.745 0 0 1 3.264-.192c.48-4.992 3.648-9.696 8.256-11.904A13.472 13.472 0 0 0 27.36 0c-6.432 0-12 4.224-13.92 10.272-1.056-.288-2.112-.576-3.264-.576C4.512 9.6 0 14.112 0 19.872s4.512 10.272 10.08 10.272h5.28v-.096z" fill="#50E6FF"/><path fill-rule="evenodd" clip-rule="evenodd" d="M35.175 34.181a11.084 11.084 0 0 1-5.799 1.627c-2.219 0-4.286-.649-6.022-1.767l-.698 13.96 6.528-6.625L35.712 48l-.537-13.819z" fill="#50E6FF"/><path d="M29.376 33.12a8.448 8.448 0 1 0 0-16.896 8.448 8.448 0 0 0 0 16.896z" fill="#50E6FF"/></svg>
